assets/logo-kyber-network.svg

<svg height="88" viewBox="0 0 166 88" width="166" xmlns="http://www.w3.org/2000/svg"><g fill="none" fill-rule="evenodd" transform="translate(-1 -1)"><g fill="#141927" transform="translate(74.367188 22.173913)"><path d="m15.3561719 20.1521739c-.4669465.2561701-.9941271.3823002-1.5264844.3652174-.20875 0-.6653906 0-1.4221094-.1043478v2.1391304c.6516078.1686878 1.3231958.2476776 1.9961719.2347826.9343705.0343773 1.8532395-.2458047 2.609375-.7956522.8111139-.6696672 1.4432263-1.5301919 1.8396094-2.5043478l5.8580468-13.19999998h-2.7659375l-3.54875 8.64782608-3.444375-8.64782608h-2.8050781l4.8142969 11.36086958-.4957813 1.1086956c-.2189681.5672118-.6058598 1.0541134-1.1089843 1.3956522z"/><path d="m29.0423437 16.5652174c.4571674.6122128 1.063538 1.097183 1.7613282 1.4086956.7612452.347132 1.590113.5208816 2.4267187.5086957 1.5842195.0622495 3.1140929-.5829979 4.175-1.7608696 1.1333154-1.1911226 1.7560342-2.7779399 1.7352344-4.4217391.0532518-1.6674894-.5784789-3.28411045-1.7482813-4.47391304-1.0989849-1.16403814-2.6395284-1.8085285-4.2402343-1.77391305h.0913281c-1.5494585-.06277293-3.041444.59160514-4.0445313 1.77391305v-7.69565218h-2.609375v18.13043482h2.400625v-1.6956522zm1.0959376-7.10869566c.6963216-.67949902 1.6365395-1.05078838 2.6093749-1.03043478.9824793-.01730925 1.9278494.3749172 2.609375 1.08260869.7133779.73994425 1.0948965 1.73822675 1.0567969 2.76521735.046378 1.0438486-.3353096 2.0614173-1.0567969 2.8173913-.6668968.73316-1.6183467 1.1421769-2.609375 1.1217392-.9628628.0335337-1.9002312-.3132023-2.6093749-.9652174-.7643293-.7622805-1.1595265-1.8190387-1.0828907-2.8956522-.0731563-1.0761085.3215188-2.1314707 1.0828907-2.89565216z" fill-rule="nonzero"/><path d="m6.158125 34.5391304c-1.35121093-.0488291-2.65978768.4773093-3.6009375 1.4478261v-1.173913h-2.41367187v11.9086956h2.60937499v-7.1086956c-.03642038-.7337591.23832498-1.4488582.75671875-1.9695652.52789396-.5169556 1.24461105-.7950826 1.983125-.7695653.71799084-.0182886 1.41177583.2600968 1.91789063.7695653.50557789.5430242.76921698 1.2678429.730625 2.0086956v7.0695652h2.609375v-7.4217391c.0603727-1.2535906-.3648516-2.4822155-1.18726563-3.4304348-.88611378-.9195893-2.13023668-1.4056717-3.40523437-1.3304348z"/><path d="m19.2180469 34.526087c-1.6457789-.0000589-3.2234016.6571041-4.3822327 1.8254309-1.1588312 1.1683267-1.802857 2.7510166-1.7889392 4.3963082-.0434711 1.6683492.6255037 3.2763166 1.8396094 4.4217391 1.2280352 1.1808031 2.8760066 1.823861 4.5794531 1.7869565 1.787933.0173312 3.511505-.6662993 4.80125-1.9043478l-1.2133594-1.7347826c-.9479.8809567-2.1894119 1.3783619-3.4835156 1.3956522-.9369967.0238191-1.8551952-.2653381-2.609375-.8217392-.7242772-.5714997-1.1932427-1.4060411-1.3046875-2.3217391h8.9632031c.1279818-.5203743.1850346-1.0556529.1696094-1.5913043.0449369-1.4703562-.5330866-2.8913553-1.5917188-3.9130435-1.0546255-1.0439484-2.4964881-1.6016385-3.9792968-1.5391304zm-3.5617969 5.0869565c.1769964-.837765.6378496-1.5887601 1.3046875-2.126087.6175095-.5194902 1.397878-.8057047 2.2049219-.8086956.8029309-.0185233 1.5825153.2708278 2.1788281.8086956.5647002.5599735.8677467 1.3315941.835 2.126087z" fill-rule="nonzero"/><path d="m47.8950781 18.5086957c1.787933.0173311 3.511505-.6662993 4.80125-1.9043479l-1.2264062-1.7347826c-.9470402.8905418-2.1964388 1.389239-3.4965625 1.3956522-.9369968.0238191-1.8551952-.2653381-2.609375-.8217391-.7242772-.5714998-1.1932427-1.4060411-1.3046875-2.3217392h8.9110156c.1547092-.5163196.2338114-1.0523169.2348437-1.5913043.0449369-1.4703562-.5330865-2.89135525-1.5917187-3.9130435-1.0442277-1.02037967-2.4541373-1.5794982-3.9140625-1.55217391-1.6526812-.00351141-3.2383041.6530774-4.4044763 1.82384459-1.1661722 1.17076718-1.8162779 2.75871632-1.8058362 4.41093802-.03702 1.6645318.6255063 3.2683741 1.8265625 4.4217391 1.2248322 1.1858002 2.8749766 1.829706 4.5794531 1.7869566zm-2.609375-9.45652179c.6227606-.51766645 1.4080706-.79938079 2.2179688-.79565217.7958356-.01361173 1.5681214.27010615 2.1657812.79565217.583248.55236292.9095349 1.32295589.9002344 2.12608699h-6.5234375c.1601924-.8317287.602598-1.5827011 1.2525-2.12608699z" fill-rule="nonzero"/><path d="m33.3739062 44.6347826c-.6203045.0546036-1.2408912-.1016516-1.7613281-.4434783-.4260128-.4139122-.6377423-1.0008276-.5740625-1.5913043v-5.5826087h3.5617969v-2.2043478h-3.5617969v-3.1043478h-2.609375v3.1043478h-1.9309375v2.2043478h1.9439844v5.7913044c-.0847093 1.1532724.3451518 2.2849451 1.1742188 3.0913043.9239419.7212113 2.0782806 1.0827172 3.2486718 1.0173913.7205908-.0196181 1.4374014-.1113809 2.1396875-.273913v-2.1391305c-.7175781.0782609-1.2133594.1304348-1.5917187.1304348z"/><path d="m50.7132031 42.4565217-3.7053125-7.9173913h-.8741406l-3.6400781 8.0217392-3.1703907-7.7478261h-2.7267968l5.3361718 12.1043478h.8741407l3.7705468-7.8782609 3.7575 7.8782609h.9002344l5.323125-12.1043478h-2.7267969z"/><path d="m63.6296094 34.5391304c-1.6801864-.0363801-3.3036679.6081389-4.5011719 1.7869566-1.1784877 1.1618465-1.8419461 2.7474843-1.8419461 4.4021739s.6634584 3.2403273 1.8419461 4.4021739c2.5199928 2.4016577 6.482351 2.4016577 9.0023438 0 1.1958366-1.1551402 1.8711527-2.7462789 1.8711527-4.4086957s-.6753161-3.2535554-1.8711527-4.4086956c-1.2021075-1.1702598-2.8236649-1.8093161-4.5011719-1.7739131zm2.609375 8.9217392c-1.4800907 1.4448515-3.8430344 1.4448515-5.323125 0-.7073146-.7279211-1.0887054-1.7117473-1.0567969-2.726087-.0437648-1.0240517.3388421-2.0204598 1.0567969-2.7521739.6886766-.7020093 1.6259793-1.1049445 2.609375-1.1217391.9805399.005654 1.9188587.3996453 2.609375 1.0956521.7113549.7359367 1.092831 1.7293996 1.0567968 2.752174.0485354 1.0057293-.292587 1.9914566-.9524218 2.7521739z" fill-rule="nonzero"/><path d="m74.7455469 36.3521739v-1.5521739h-2.3875782v11.8956522h2.609375v-6.3652174c-.0435904-.9115228.3196093-1.7953972.9915626-2.4130435.6938661-.5881858 1.582884-.8953058 2.4919531-.8608696h.7697656v-2.2434782c-.3104722-.0832015-.6310331-.1227124-.9524219-.1173913-1.3751638-.0601197-2.6920803.5591575-3.5226562 1.6565217z"/><path d="m58.1499219 11.9086957c-.0454264-.9118389.3180813-1.7964628.9915625-2.41304353.6944804-.58847481 1.5819418-.89970222 2.4919531-.87391304h.7828125v-2.23043478c-.315092-.08228554-.6398337-.12177088-.9654688-.11739131-1.3689117-.05065377-2.6755904.57326909-3.4965625 1.66956522v-1.55217391h-2.400625v11.86956525h2.609375v-6.3521739z"/><path d="m81.5821094 28.5521739h2.5702343v18.1565218h-2.5702343z"/><path d="m87.2575 40.0173913 4.8403906-5.2043478h-3.1703906l-4.696875 5.1913043 5.2317969 6.6913044h3.0921093z"/><path d="m10.6592969 6.36521739h-3.18343752l-4.68382813 5.20434781 5.23179687 6.7043478h3.09210938l-5.29703125-6.6782608z"/><path d="m.14351563.1173913h2.57023437v18.1565217h-2.57023437z"/></g><g fill="#31cb9e"><path d="m27.3984375 45.0130435 32.6171875 18.6782608c.5337223.3207236 1.1990544.3284201 1.7400569.020129.5410026-.3082912.873397-.8845438.8693181-1.5070855v-34.4086956c.0078653-.6238078-.324956-1.2023184-.868255-1.5092024s-1.2107087-.2933568-1.74112.0352893z"/><path d="m59.3241406 18.0521739-22.2971093-16.39565216c-.4706407-.35967216-1.0897785-.4608078-1.6504517-.26959988-.5606733.19120791-.9889167.64953477-1.1415796 1.22177379l-8.14125 36.52173915 33.0346875-18.2608696c.5112222-.262911.8479235-.7737127.8879353-1.3470661s-.2224797-1.1259485-.6922322-1.4572817"/><path d="m37.0009375 88.3565217 22.3232031-16.3956521c.4698146-.3355592.7329175-.8899365.6957436-1.465983-.037174-.5760466-.3693503-1.0920287-.8783998-1.3644518l-33.0477344-18.2608696 8.14125 36.5217391c.137187.5764145.5551413 1.0452078 1.1121968 1.2474819s1.1785175.1109063 1.6537407-.243134"/><path d="m18.9179688 44.3478261 8.4804687-39.6652174c.1324902-.67215143-.1558697-1.35749852-.7291055-1.73287019s-1.316879-.36581068-1.8802695.02417453l-21.72304688 16.65652176c-1.11502171.8552014-1.76651727 2.1819765-1.76132812 3.5869565v42.2608696c-.02580501 1.427831.62782278 2.7831505 1.76132813 3.6521739l21.61867187 16.5913043c.5633905.3899852 1.3070337.3995462 1.8802695.0241746.5732358-.3753717.8615957-1.0607188.7291055-1.7328702z"/></g></g></svg>

<?xml version="1.0" encoding="UTF-8"?>
<svg width="166px" height="88px" viewBox="0 0 166 88" version="1.1" xmlns="http://www.w3.org/2000/svg" xmlns:xlink="http://www.w3.org/1999/xlink">
    <!-- Generator: Sketch 52.2 (67145) - http://www.bohemiancoding.com/sketch -->
    <title>kyber-network-1</title>
    <desc>Created with Sketch.</desc>
    <g id="Designs" stroke="none" stroke-width="1" fill="none" fill-rule="evenodd">
        <g id="Partners" transform="translate(-397.000000, -1160.000000)">
            <g id="Group-4" transform="translate(250.000000, 948.000000)">
                <g id="Group-3" transform="translate(0.000000, 158.000000)">
                    <g id="kyber-network-1" transform="translate(146.000000, 53.000000)">
                        <g id="Group" transform="translate(74.367188, 22.173913)" fill="#141927">
                            <path d="M15.3561719,20.1521739 C14.8892254,20.408344 14.3620448,20.5344741 13.8296875,20.5173913 C13.6209375,20.5173913 13.1642969,20.5173913 12.4075781,20.4130435 L12.4075781,22.5521739 C13.0591859,22.7208617 13.7307739,22.7998515 14.40375,22.7869565 C15.3381205,22.8213338 16.2569895,22.5411518 17.013125,21.9913043 C17.8242389,21.3216371 18.4563513,20.4611124 18.8527344,19.4869565 L24.7107812,6.28695652 L21.9448437,6.28695652 L18.3960937,14.9347826 L14.9517187,6.28695652 L12.1466406,6.28695652 L16.9609375,17.6478261 L16.4651562,18.7565217 C16.2461881,19.3237335 15.8592964,19.8106351 15.3561719,20.1521739 Z" id="Path"></path>
                            <path d="M29.0423437,16.5652174 C29.4995111,17.1774302 30.1058817,17.6624004 30.8036719,17.973913 C31.5649171,18.321045 32.3937849,18.4947946 33.2303906,18.4826087 C34.8146101,18.5448582 36.3444835,17.8996108 37.4053906,16.7217391 C38.538706,15.5306165 39.1614248,13.9437992 39.140625,12.3 C39.1938768,10.6325106 38.5621461,9.01588955 37.3923437,7.82608696 C36.2933588,6.66204882 34.7528153,6.01755846 33.1521094,6.05217391 L33.2434375,6.05217391 C31.693979,5.98940098 30.2019935,6.64377905 29.1989062,7.82608696 L29.1989062,0.130434783 L26.5895312,0.130434783 L26.5895312,18.2608696 L28.9901562,18.2608696 L28.9901562,16.5652174 L29.0423437,16.5652174 Z M30.1382813,9.45652174 C30.8346029,8.77702272 31.7748208,8.40573336 32.7476562,8.42608696 C33.7301355,8.40877771 34.6755056,8.80100416 35.3570312,9.50869565 C36.0704091,10.2486399 36.4519277,11.2469224 36.4138281,12.273913 C36.4602061,13.3177616 36.0785185,14.3353303 35.3570312,15.0913043 C34.6901344,15.8244643 33.7386845,16.2334812 32.7476562,16.2130435 C31.7847934,16.2465772 30.847425,15.8998412 30.1382813,15.2478261 C29.373952,14.4855456 28.9787548,13.4287874 29.0553906,12.3521739 C28.9822343,11.2760654 29.3769094,10.2207032 30.1382813,9.45652174 Z" id="Shape" fill-rule="nonzero"></path>
                            <path d="M6.158125,34.5391304 C4.80691407,34.4903013 3.49833732,35.0164397 2.5571875,35.9869565 L2.5571875,34.8130435 L0.143515625,34.8130435 L0.143515625,46.7217391 L2.75289062,46.7217391 L2.75289062,39.6130435 C2.71647024,38.8792844 2.9912156,38.1641853 3.50960937,37.6434783 C4.03750333,37.1265227 4.75422042,36.8483957 5.49273437,36.873913 C6.21072521,36.8556244 6.9045102,37.1340098 7.410625,37.6434783 C7.91620289,38.1865025 8.17984198,38.9113212 8.14125,39.6521739 L8.14125,46.7217391 L10.750625,46.7217391 L10.750625,39.3 C10.8109977,38.0464094 10.3857734,36.8177845 9.56335937,35.8695652 C8.67724559,34.9499759 7.43312269,34.4638935 6.158125,34.5391304 Z" id="Path"></path>
                            <path d="M19.2180469,34.526087 C17.572268,34.5260281 15.9946453,35.1831911 14.8358142,36.3515179 C13.676983,37.5198446 13.0329572,39.1025345 13.046875,40.7478261 C13.0034039,42.4161753 13.6723787,44.0241427 14.8864844,45.1695652 C16.1145196,46.3503683 17.762491,46.9934262 19.4659375,46.9565217 C21.2538705,46.9738529 22.9774425,46.2902224 24.2671875,45.0521739 L23.0538281,43.3173913 C22.1059281,44.198348 20.8644162,44.6957532 19.5703125,44.7130435 C18.6333158,44.7368626 17.7151173,44.4477054 16.9609375,43.8913043 C16.2366603,43.3198046 15.7676948,42.4852632 15.65625,41.5695652 L24.6194531,41.5695652 C24.7474349,41.0491909 24.8044877,40.5139123 24.7890625,39.9782609 C24.8339994,38.5079047 24.2559759,37.0869056 23.1973437,36.0652174 C22.1427182,35.021269 20.7008556,34.4635789 19.2180469,34.526087 Z M15.65625,39.6130435 C15.8332464,38.7752785 16.2940996,38.0242834 16.9609375,37.4869565 C17.578447,36.9674663 18.3588155,36.6812518 19.1658594,36.6782609 C19.9687903,36.6597376 20.7483747,36.9490887 21.3446875,37.4869565 C21.9093877,38.04693 22.2124342,38.8185506 22.1796875,39.6130435 L15.65625,39.6130435 Z" id="Shape" fill-rule="nonzero"></path>
                            <path d="M47.8950781,18.5086957 C49.6830111,18.5260268 51.4065831,17.8423964 52.6963281,16.6043478 L51.4699219,14.8695652 C50.5228817,15.760107 49.2734831,16.2588042 47.9733594,16.2652174 C47.0363626,16.2890365 46.1181642,15.9998793 45.3639844,15.4434783 C44.6397072,14.8719785 44.1707417,14.0374372 44.0592969,13.1217391 L52.9703125,13.1217391 C53.1250217,12.6054195 53.2041239,12.0694222 53.2051562,11.5304348 C53.2500931,10.0600786 52.6720697,8.63907955 51.6134375,7.6173913 C50.5692098,6.59701163 49.1593002,6.0378931 47.699375,6.06521739 C46.0466938,6.06170598 44.4610709,6.71829479 43.2948987,7.88906198 C42.1287265,9.05982916 41.4786208,10.6477783 41.4890625,12.3 C41.4520425,13.9645318 42.1145688,15.5683741 43.315625,16.7217391 C44.5404572,17.9075393 46.1906016,18.5514451 47.8950781,18.5086957 Z M45.2857031,9.05217391 C45.9084637,8.53450746 46.6937737,8.25279312 47.5036719,8.25652174 C48.2995075,8.24291001 49.0717933,8.52662789 49.6694531,9.05217391 C50.2527011,9.60453683 50.578988,10.3751298 50.5696875,11.1782609 L44.04625,11.1782609 C44.2064424,10.3465322 44.648848,9.5955598 45.29875,9.05217391 L45.2857031,9.05217391 Z" id="Shape" fill-rule="nonzero"></path>
                            <path d="M33.3739062,44.6347826 C32.7536017,44.6893862 32.133015,44.533131 31.6125781,44.1913043 C31.1865653,43.7773921 30.9748358,43.1904767 31.0385156,42.6 L31.0385156,37.0173913 L34.6003125,37.0173913 L34.6003125,34.8130435 L31.0385156,34.8130435 L31.0385156,31.7086957 L28.4291406,31.7086957 L28.4291406,34.8130435 L26.4982031,34.8130435 L26.4982031,37.0173913 L28.4421875,37.0173913 L28.4421875,42.8086957 C28.3574782,43.9619681 28.7873393,45.0936408 29.6164063,45.9 C30.5403482,46.6212113 31.6946869,46.9827172 32.8650781,46.9173913 C33.5856689,46.8977732 34.3024795,46.8060104 35.0047656,46.6434783 L35.0047656,44.5043478 C34.2871875,44.5826087 33.7914062,44.6347826 33.4130469,44.6347826 L33.3739062,44.6347826 Z" id="Path"></path>
                            <polygon id="Path" points="50.7132031 42.4565217 47.0078906 34.5391304 46.13375 34.5391304 42.4936719 42.5608696 39.3232812 34.8130435 36.5964844 34.8130435 41.9326562 46.9173913 42.8067969 46.9173913 46.5773437 39.0391304 50.3348437 46.9173913 51.2350781 46.9173913 56.5582031 34.8130435 53.8314062 34.8130435"></polygon>
                            <path d="M63.6296094,34.5391304 C61.949423,34.5027503 60.3259415,35.1472693 59.1284375,36.326087 C57.9499498,37.4879335 57.2864914,39.0735713 57.2864914,40.7282609 C57.2864914,42.3829505 57.9499498,43.9685882 59.1284375,45.1304348 C61.6484303,47.5320925 65.6107885,47.5320925 68.1307813,45.1304348 C69.3266179,43.9752946 70.001934,42.3841559 70.001934,40.7217391 C70.001934,39.0593223 69.3266179,37.4681837 68.1307813,36.3130435 C66.9286738,35.1427837 65.3071164,34.5037274 63.6296094,34.5391304 Z M66.2389844,43.4608696 C64.7588937,44.9057211 62.39595,44.9057211 60.9158594,43.4608696 C60.2085448,42.7329485 59.827154,41.7491223 59.8590625,40.7347826 C59.8152977,39.7107309 60.1979046,38.7143228 60.9158594,37.9826087 C61.604536,37.2805994 62.5418387,36.8776642 63.5252344,36.8608696 C64.5057743,36.8665236 65.4440931,37.2605149 66.1346094,37.9565217 C66.8459643,38.6924584 67.2274404,39.6859213 67.1914062,40.7086957 C67.2399416,41.714425 66.8988192,42.7001523 66.2389844,43.4608696 Z" id="Shape" fill-rule="nonzero"></path>
                            <path d="M74.7455469,36.3521739 L74.7455469,34.8 L72.3579687,34.8 L72.3579687,46.6956522 L74.9673437,46.6956522 L74.9673437,40.3304348 C74.9237533,39.418912 75.286953,38.5350376 75.9589063,37.9173913 C76.6527724,37.3292055 77.5417903,37.0220855 78.4508594,37.0565217 L79.220625,37.0565217 L79.220625,34.8130435 C78.9101528,34.729842 78.5895919,34.6903311 78.2682031,34.6956522 C76.8930393,34.6355325 75.5761228,35.2548097 74.7455469,36.3521739 Z" id="Path"></path>
                            <path d="M58.1499219,11.9086957 C58.1044955,10.9968568 58.4680032,10.1122329 59.1414844,9.49565217 C59.8359648,8.90717736 60.7234262,8.59594995 61.6334375,8.62173913 L62.41625,8.62173913 L62.41625,6.39130435 C62.101158,6.30901881 61.7764163,6.26953347 61.4507812,6.27391304 C60.0818695,6.22325927 58.7751908,6.84718213 57.9542187,7.94347826 L57.9542187,6.39130435 L55.5535937,6.39130435 L55.5535937,18.2608696 L58.1629687,18.2608696 L58.1629687,11.9086957 L58.1499219,11.9086957 Z" id="Path"></path>
                            <polygon id="Path" points="81.5821094 28.5521739 84.1523437 28.5521739 84.1523437 46.7086957 81.5821094 46.7086957"></polygon>
                            <polygon id="Path" points="87.2575 40.0173913 92.0978906 34.8130435 88.9275 34.8130435 84.230625 40.0043478 89.4624219 46.6956522 92.5545312 46.6956522"></polygon>
                            <polygon id="Path" points="10.6592969 6.36521739 7.47585938 6.36521739 2.79203125 11.5695652 8.02382812 18.273913 11.1159375 18.273913 5.81890625 11.5956522"></polygon>
                            <polygon id="Path" points="0.143515625 0.117391304 2.71375 0.117391304 2.71375 18.273913 0.143515625 18.273913"></polygon>
                        </g>
                        <path d="M27.3984375,45.0130435 L60.015625,63.6913043 C60.5493473,64.0120279 61.2146794,64.0197244 61.7556819,63.7114333 C62.2966845,63.4031421 62.6290789,62.8268895 62.625,62.2043478 L62.625,27.7956522 C62.6328653,27.1718444 62.300044,26.5933338 61.756745,26.2864498 C61.213446,25.9795658 60.5460363,25.993093 60.015625,26.3217391 L27.3984375,45.0130435 Z" id="Path" fill="#31CB9E"></path>
                        <path d="M59.3241406,18.0521739 L37.0270313,1.65652174 C36.5563906,1.29684958 35.9372528,1.19571394 35.3765796,1.38692186 C34.8159063,1.57812977 34.3876629,2.03645663 34.235,2.60869565 L26.09375,39.1304348 L59.1284375,20.8695652 C59.6396597,20.6066542 59.976361,20.0958525 60.0163728,19.5224991 C60.0563846,18.9491457 59.7938931,18.3965506 59.3241406,18.0652174" id="Path" fill="#31CB9E"></path>
                        <path d="M37.0009375,88.3565217 L59.3241406,71.9608696 C59.7939552,71.6253104 60.0570581,71.0709331 60.0198842,70.4948866 C59.9827102,69.91884 59.6505339,69.4028579 59.1414844,69.1304348 L26.09375,50.8695652 L34.235,87.3913043 C34.372187,87.9677188 34.7901413,88.4365121 35.3471968,88.6387862 C35.9042523,88.8410603 36.5257143,88.7496925 37.0009375,88.3956522" id="Path" fill="#31CB9E"></path>
                        <path d="M18.9179688,44.3478261 L27.3984375,4.6826087 C27.5309277,4.01045727 27.2425678,3.32511018 26.669332,2.94973851 C26.0960962,2.57436684 25.352453,2.58392783 24.7890625,2.97391304 L3.06601562,19.6304348 C1.95099391,20.4856362 1.29949835,21.8124113 1.3046875,23.2173913 L1.3046875,65.4782609 C1.27888249,66.9060919 1.93251028,68.2614114 3.06601563,69.1304348 L24.6846875,85.7217391 C25.248078,86.1117243 25.9917212,86.1212853 26.564957,85.7459137 C27.1381928,85.370542 27.4265527,84.6851949 27.2940625,84.0130435 L18.9179688,44.3478261 Z" id="Path" fill="#31CB9E"></path>
                    </g>
                </g>
            </g>
        </g>
    </g>
</svg>
